X:1
T:Title
%%score { ( 1 4 5 ) | ( 2 3 ) }
L:1/8
M:4/4
K:G
V:1 treble nm="Grand Piano"
V:4 treble 
V:5 treble 
V:2 treble 
V:3 treble 
V:1
 z4 z2[Q:1/4=112] G2 | B2 d2 B2 [DG]2 | [DFA]6 [DAc]2 | [DGB]2 [DG]2 [CEA]2 [A,DF]2 | %4
[M:3/4] [B,DG]6 |[M:1/4] D2 |[M:4/4] G2 B2 d2 B2 | e2 d2 d2 [DG]2 | [EGc]2 [DGB]2 [DFA]2 [CFA]2 | %9
[M:3/4] [B,G]6 |[M:1/4] [GB]c |[M:4/4] [Bd]4- [Bd]>c [GB]>[FA] | [EG]6 z2 | %13
 [DFA]2 [DFA]2 [DG]2 [DFA]2 |[M:3/4] [GB]6 |[M:1/4] Bc |[M:4/4] d6 z2 | [EG]6 z2 | %18
 [G,B,D]2 [B,DG]2 [DGB]2 [CFA]2 |[M:3/4] [B,DG]6 |] %20
V:2
 z4 z2 [G,B,]2 | [G,DG]2 [G,B,G]2 [G,DG]2[K:bass] B,,2 | D,6 F,2 | G,2 B,,2 C,2 D,2 |[M:3/4] G,,6 | %5
[M:1/4] [G,B,]2 |[M:4/4][K:treble] [G,B,D]2 [G,DG]2 [G,B,G]2 [G,D]2 | %7
 [G,CG]2 [G,B,G]2 [G,B,G]2[K:bass] B,,2 | C,2 G,,2 D,2 D,2 |[M:3/4] G,,6 |[M:1/4][K:treble] z A | %11
[M:4/4] G,2 G,2 z z/ A/[K:bass] [B,,G,]2 | [C,G,]2 C,2 C,2 E,2 | D,2 C,2 B,,2 A,,2 | %14
[M:3/4] G,,G,, B,,D, G,2 |[M:1/4][K:treble] GA |[M:4/4] B4- B>A[K:bass] [B,,G,]2 | %17
 [C,G,]2 C,2 C,2 C,2 | D,2 D,2 D,2 D,2 |[M:3/4] G,,6 |] %20
V:3
 x8 | x6[K:bass] x2 | x8 | x8 |[M:3/4] x6 |[M:1/4] x2 |[M:4/4][K:treble] x8 | x6[K:bass] x2 | x8 | %9
[M:3/4] x6 |[M:1/4][K:treble] G,2 |[M:4/4] z4 G,2[K:bass] z2 | x8 | x8 |[M:3/4] x6 | %15
[M:1/4][K:treble] x2 |[M:4/4] x6[K:bass] x2 | x8 | x8 |[M:3/4] x6 |] %20
V:4
 x8 | x8 | x8 | x8 |[M:3/4] x6 |[M:1/4] x2 |[M:4/4] x8 | x8 | x8 |[M:3/4] x6 |[M:1/4] x2 | %11
[M:4/4] x8 | z2 C2 C2 [B,EG]2 | x8 |[M:3/4] DD DD D2 |[M:1/4] x2 | %16
[M:4/4] z2 G,2 z z/ c/ [GB]>[FA] | z2 G,2 G,2 [G,CE]2 | x8 |[M:3/4] x6 |] %20
V:5
 x8 | x8 | x8 | x8 |[M:3/4] x6 |[M:1/4] x2 |[M:4/4] x8 | x8 | x8 |[M:3/4] x6 |[M:1/4] x2 | %11
[M:4/4] x8 | x8 | x8 |[M:3/4] x6 |[M:1/4] x2 |[M:4/4] z4 G,2 z2 | x8 | x8 |[M:3/4] x6 |] %20

